!!!COM: Palestrina, Giovanni Perluigi da
!!!OPR: Missa Ecce sacerdos magnus
!!!OMD: Benedictus
!!!OTL: B.Hosanna
**kern	**kern	**kern	**kern
*Ibass	*Itenor	*Icalto	*Icant
!Bassus	!Tenor	!Altus	!Cantus
*clefF4	*clefGv2	*clefG2	*clefG2
*k[]	*k[]	*k[]	*k[]
*G:mix	*G:mix	*G:mix	*G:mix
*M3/2	*M3/2	*M3/2	*M3/2
=46	=46	=46	=46
1r	1r	1r	1dd
2r	2r	2r	2dd
=47	=47	=47	=47
1r	1r	1g	2b
.	.	.	1dd
2r	2r	2g	.
=48	=48	=48	=48
1r	1r	2e	2ee
.	.	1g	2.dd
2r	2r	.	.
.	.	.	4b
=49	=49	=49	=49
1r	1r	2a	2cc
.	.	2.g	2.b
2r	2r	.	.
.	.	4e	4cc
=50	=50	=50	=50
1r	1r	2f	2dd
.	.	2e	2cc
2r	2r	[2g	2b
=51	=51	=51	=51
1r	1d	4g]	1.a
.	.	4f	.
.	.	4f	.
.	.	4e	.
2r	2d	2f#	.
=52	=52	=52	=52
1G	2B	1g	1g
.	1d	.	.
2G	.	2r	2b
=53	=53	=53	=53
2E	2e	1g	2cc
1G	2.d	.	2b
.	.	2g	2dd
.	4B	.	.
=54	=54	=54	=54
2A	2c	2e	2cc
2.G	2d	1g	2.b
.	2e	.	.
4E	.	.	4cc
=55	=55	=55	=55
2F	1d	2a	2dd
1E	.	2.g	1ee
.	2c#	.	.
.	.	4e	.
=56	=56	=56	=56
2.D	1d	2.f	2a
.	.	.	2r
4E	.	4g	.
2F	2c	2a	2r
=57	=57	=57	=57
2G	2B	1g	1dd
1D	1A	.	.
.	.	2f#	2dd
=58	=58	=58	=58
2G	2G	2g	2b
2r	2g	2G	1dd
2r	2g	2B	.
=59	=59	=59	=59
2r	2e	2.c	2.ee
2c	1g	.	.
.	.	4d	4ff
2c	.	2e	4gg
.	.	.	4ee
=60	=60	=60	=60
2A	2a	2c	2ff
1c	2.g	2.cc	1ee
.	4e	4b	.
=61	=61	=61	=61
2d	2f	4a	2.dd
.	.	4g	.
1A	1e	1a	.
.	.	.	4cc#
.	.	.	2cc#
=62	=62	=62	=62
4D	2.f	2a	2dd
4E	.	.	.
4F	.	2r	2a
4G	4e	.	.
4A	2c	2r	2cc
4B	.	.	.
=63	=63	=63	=63
1c	2e	1g	2cc
.	1d	.	1dd
2B	.	2g	.
=64	=64	=64	=64
2c	2.c	2e	2.ee
2r	.	1g	.
.	4d	.	4dd
2r	2e	.	2b
=65	=65	=65	=65
1r	2A	2a	2cc
.	2B	2.g	2.b
2r	2c	.	.
.	.	4e	4a
=66	=66	=66	=66
1r	2d	2f	1a
.	1B	2.d	.
2r	.	.	2g#
.	.	4e	.
=67	=67	=67	=67
2r	2.A	2f	2a
1A	.	2e	1cc
.	4B	.	.
.	4c	2r	.
.	4d	.	.
=68	=68	=68	=68
2G	1e	2r	2b
2A	.	1a	4cc
.	.	.	4dd
2c	2r	.	4ee
.	.	.	4cc
=69	=69	=69	=69
2B-	1d	2g	4dd
.	.	.	4ee
1A	.	2a	2ff
.	2c	2cc	2ee
=70	=70	=70	=70
2G	2d	2b-	1r
2F	2f	2a	.
[2G	2e	[2g	2r
=71	=71	=71	=71
4G]	2.d	4g]	2r
4F	.	4a	.
2D	.	2b-	1dd
.	4c	.	.
2F	4A	2a	.
.	4B	.	.
=72	=72	=72	=72
2E	1c	2g	2cc
1D	.	2f	2dd
.	2B	2d	2ff
=73	=73	=73	=73
2C	1c	1e	1ee
2c	.	.	.
2B	2r	2r	2dd
=74	=74	=74	=74
2A	1r	1a	2cc
2.e	.	.	1b
.	2r	2g	.
4d	.	.	.
=75	=75	=75	=75
2c	2r	2a	1.a
2d	1d	1f	.
[2A	.	.	.
=76	=76	=76	=76
2A]	2c	2e	2r
2D	2d	1d	2r
2r	[2f	.	[2a
=77	=77	=77	=77
2r	4f]	2.c	2a]
.	4e	.	.
2r	2e	.	2g
.	.	4d	.
[2A	4c	2e	2a
.	4d	.	.
=78	=78	=78	=78
2A]	4e	2c	2cc
.	4f	.	.
2G	2g	2d	2.b
2A	2f	2c	.
.	.	.	4a
=79	=79	=79	=79
2c	2e	2r	1a
1B	2.d	2r	.
.	.	[2d	2g
.	4e	.	.
=80	=80	=80	=80
2.A	2f	2d]	2a
.	2e	2c	2ee
4G	.	.	.
2F	2r	2d	[2ff
=81	=81	=81	=81
2D	1d	2f	4ff]
.	.	.	4dd
1A	.	1e	2ee
.	2c	.	2a
=82	=82	=82	=82
2D	2d	2.d	2r
2r	1f	.	1dd
.	.	4e	.
2r	.	2f	.
=83	=83	=83	=83
1r	2e	2g	2cc
.	1d	1a	2dd
2r	.	.	2ff
=84	=84	=84	=84
1A	2.c	2r	2.ee
.	.	2e	.
.	4A	.	4dd
2G	2B	2g	2b
=85	=85	=85	=85
2A	1A	2f	2cc
1c	.	2.e	1a
.	2r	.	.
.	.	4f	.
=86	=86	=86	=86
2B	1d	1g	2g
1A	.	.	2a
.	2c	2f#	2cc
=87	=87	=87	=87
2G	1d	2g	2b
1D	.	2f	2.a
.	2f	2d	.
.	.	.	4b
=88	=88	=88	=88
2C	2e	2e	2cc
1D	2.d	2r	2b
.	.	2r	[2a
.	4c	.	.
=89	=89	=89	=89
2F	2A	1d	4a]
.	.	.	4f
1E	2B	.	2g
.	2G	2c	2e
=90	=90	=90	=90
1D	2.A	2d	2f
.	.	1f	2.a
.	4B	.	.
[2C	[2c	.	.
.	.	.	4g
=91	=91	=91	=91
2C]	4c]	2e	1g
.	4B	.	.
1D	1A	1d	.
.	.	.	2f#
=92	=92	=92	=92
[1.G	[1.G	[1.d	[1.g
=93	=93	=93	=93
1.G]	1.G]	1.d]	1.g]
==	==	==	==
*-	*-	*-	*-
!!!CDT: 1525/^1526/-1594/2/2
!!!OCY: Italia
!!!AGN: Mass (Tenor)
!!!AST: renaissance, vocal
!!!ASW: Antiphon
!!!PWK: Masses, Book I
!!!RNB: Cadence finals: D,C
!!!YOR: Le Opere Complete, v. 1, p. 1
!!!YOO: Rome, Italy: Fratelli Scalera
!!!END: 1992//
!!!EED: John Miller
!!!YEC: Copyright 2000, John Miller
!!!YEN: United States of America
!!!YEM: Rights to all derivative electronic formats reserved.
!!!YEM: Refer to licensing agreement for further details.
!!!YEM: This file must be accompanied by the licensing agreement.
!!!YEM: A copy of the licensing agreement may be found at http://www.music-cog.ohio-state.edu/HumdrumDatabases/Palestrina/license.txt
!!!EMD: converted to Humdrum by Bret Aarden
